X:1
T:James Gibb editions
T:Te Deum laudamus - Anerio
T:#
%%score [ 1 2 3 4 ]
L:1/8
Q:1/4=140
M:none
K:C
V:1 treble nm="Soprano" snm="S"
V:2 treble nm="Alto" snm="A"
V:3 treble-8 nm="Tenor" snm="T"
V:4 treble nm="Bass" snm="B"
V:1
 z24 ||[K:D][M:4/4][K:treble]!f!"^allegro"[Q:1/4=112][Q:1/4=112][Q:1/4=112][Q:1/4=112] B4 B4- | %2
w: |Te Do\-|
 B2 c2"^," d2 A2 | B2 (!>!d3 cBA | ^GF/G/ A4 G2) | !fermata!A8 || %6
w: * mi- num con-|fi- te\- * * *||mur.|
[M:4/4][Q:1/4=112][Q:1/4=112][Q:1/4=112][Q:1/4=140][Q:1/4=112] z18 | z26 || %8
w: ||
[M:4/4][Q:1/4=140][Q:1/4=112][Q:1/4=140][Q:1/4=112][Q:1/4=140][Q:1/4=112][Q:1/4=140][Q:1/4=112] d4"^," c2 B2- | %9
w: Ti- bi o\-|
 B2 d2 (c"^,"B B2- | B2) ^A2"^," B2 !>!^G2 | ^G2 G2 !courtesy!=A4 | %12
w: * mnes an\- * *|* ge- li, ti\-|* bi coe-|
[M:4/4][Q:1/4=112]"^,"[Q:1/4=112][Q:1/4=112][Q:1/4=112] F4 A4 | !>!B3 B B2 B2 | A4 B2 (!>!A2- | %15
w: li et|u- ni- ver- sae|po- te- sta\-|
 A2 ^G2) !fermata!A4 ||[M:4/4][Q:1/4=140] z26 | z30 || %18
w: * * tes.|||
[M:4/4][Q:1/4=140]!p![Q:1/4=112][Q:1/4=140][Q:1/4=112][Q:1/4=140][Q:1/4=112][Q:1/4=140][Q:1/4=112] (A3!<(! B cd e2- | %19
w: San\- * * * *|
 e!<)!d/c/ Bc d2 c2- |!>(! c"^,"B"^rit." B4 ^A2)!>)! | !fermata!B8 x || %22
w: ||ctus.|
[M:4/4][Q:1/4=112][Q:1/4=112][Q:1/4=112][Q:1/4=112] z4!p!!<(! B4- | B4 B3!<)! B |"^," c4 (A4 | %25
w: San-|ctus Do- mi-|nus De\-|
 B2) d2 (c4 | B6)!>(! B2 | !fermata!c8!>)! ||[M:4/4][Q:1/4=140] z22 | z28 || %30
w: * us Sa\-|* ba-|oth.|||
[M:4/4][Q:1/4=140][Q:1/4=112][Q:1/4=140][Q:1/4=112][Q:1/4=140][Q:1/4=112][Q:1/4=140][Q:1/4=112] z4!f! A4 | %31
w: Te|
 A2 A2 !>!B4 |"^," A2 d2 c3 d | B2 A2"^rit."[Q:1/4=110] (B"^,"[Q:1/4=108]A[Q:1/4=105] A2- | %34
w: glo- ri- o-|sus A- po- sto-|lo- rum cho\- * *|
[Q:1/4=101] A2[Q:1/4=97] ^G2)[Q:1/4=96] !fermata!A4 || %35
w: * * rus.|
[M:4/4][Q:1/4=96][Q:1/4=96][Q:1/4=96][Q:1/4=140][Q:1/4=96] z36 || %36
w: |
[M:4/4][Q:1/4=140]"^allegro vivo"[Q:1/4=120][Q:1/4=140][Q:1/4=120][Q:1/4=140][Q:1/4=120][Q:1/4=140][Q:1/4=120] z8 | %37
w: |
 z4!f! !>!d4 | c3 c d2 AA |[M:4/4][Q:1/4=120][Q:1/4=120][Q:1/4=120][Q:1/4=120] !>!B4 c4 | %40
w: Te|Mar- ty- rum can- di-|da- tus|
 z2 A2 G2[Q:1/4=118] (B2- |[Q:1/4=115] B"^,"[Q:1/4=113]A)[Q:1/4=108] A4"^rit."[Q:1/4=103] ^G2 | %42
w: lau- dat e\-|* * xer- ci-|
[Q:1/4=102] !fermata!A8 ||[M:4/4][Q:1/4=102][Q:1/4=102][Q:1/4=102][Q:1/4=140][Q:1/4=102] z20 | %44
w: tus.||
 z28 || %45
w: |
[M:4/4][Q:1/4=140][Q:1/4=102][Q:1/4=140][Q:1/4=102][Q:1/4=140][Q:1/4=102][Q:1/4=140][Q:1/4=102] z4!mf!!<(! (A4 | %46
w: Pa\-|
 B3 c!<)! d3 c | BA B2 c2"^," A2) | A6 A2 | A2 G2"^rit." F4 | !fermata!F8 || %51
w: |* * * trem im-|men- sae|ma- je- sta-|tis.|
[M:4/4][Q:1/4=102][Q:1/4=102][Q:1/4=102][Q:1/4=140][Q:1/4=102] z22 | z20 || %53
w: ||
[M:3/2][Q:1/4=140]!mf![Q:1/4=192][Q:1/4=140][Q:1/4=192][Q:1/4=140][Q:1/4=192][Q:1/4=140][Q:1/4=192] ^A8 B4 | %54
w: San- ctum|
 B8"^," B4 |"^cresc." B8 c4 |!f! d8 d4- ||[M:4/4]"^l'istesso tempo"[Q:1/4=96] A2 !>!B3 B A2 | %58
w: quo- que,|san- ctum|quo- que|Pa- ra- cli- tum|
"^rit."[Q:1/4=92] (G4[Q:1/4=87]!>(! F3)[Q:1/4=84] F!>)! |[Q:1/4=84] !fermata!F8 || %60
w: Spi\- * ri-|tum.|
[M:4/4][Q:1/4=84][Q:1/4=84][Q:1/4=84][Q:1/4=140][Q:1/4=84] z22 || %61
w: |
[M:4/4][Q:1/4=140]!mf![Q:1/4=108][Q:1/4=140][Q:1/4=35][Q:1/4=140][Q:1/4=35][Q:1/4=140][Q:1/4=35] ^A4!<(! (B4!<)! | %62
w: Tu Pa\-|
 c4)"^," F2 B2- | B2 F2 !courtesy!=A4 |"^,""^meno mosso" A2[Q:1/4=100] A4 ^G2 | A4"^," A2 B2- | %66
w: * tris sem\-|* pi- ter-|nus, sem- pi-|ter- nus es|
!>(! B2 A4!>)! ^G2 | !fermata!A8 || %68
w: * Fi- li-|us.|
[M:4/4][Q:1/4=100][Q:1/4=100][Q:1/4=100][Q:1/4=140][Q:1/4=100] z38 | %69
w: |
[Q:1/4=140][Q:1/4=140][Q:1/4=140][Q:1/4=140] z30 ||[Q:1/4=112][Q:1/4=100][Q:1/4=100] z8 | z8 | z8 | %73
w: ||||
 z8 | z8 | z8 | z8 | %77
w: ||||
[M:4/4][Q:1/4=100][Q:1/4=100][Q:1/4=125][Q:1/4=100][Q:1/4=125][Q:1/4=100][Q:1/4=125] z8 | z8 | z8 | %80
w: |||
 z8 | z8 | z8 | z8 |[M:4/4][Q:1/4=125][Q:1/4=125][Q:1/4=125][Q:1/4=140][Q:1/4=125] z46 || %85
w: |||||
[M:4/4][Q:1/4=140]!f![Q:1/4=108][Q:1/4=140][Q:1/4=108][Q:1/4=140][Q:1/4=108][Q:1/4=140][Q:1/4=108] c2 ^A2 (B3 =A | %86
w: Ju- dex cre\- *|
 G2) G2 F2 B2- | B2 F2 A4 |!>(! B4!>)! !fermata!^A4 || %89
w: * de- ris es\-|* se ven-|tu- rus.|
[M:4/4][Q:1/4=108][Q:1/4=108][Q:1/4=108][Q:1/4=140][Q:1/4=108] z40 | %90
w: |
[Q:1/4=140][Q:1/4=140][Q:1/4=140][Q:1/4=140] z32 || %91
w: |
[M:4/4]!p![Q:1/4=76][Q:1/4=76][Q:1/4=76][Q:1/4=76] !courtesy!=A8 | (!>!B3 A G2) G2 |"^," F4 A4 | %94
w: Ae-|ter\- * * na|fac cum|
!<(! B4 G4!<)! | x8 |[M:4/4][Q:1/4=76][Q:1/4=76][Q:1/4=76][Q:1/4=76]!>(! =c4"^,""^," B2!>)!!p! B2 | %97
w: san- ctis||tu- is in|
 BB d2 B2 B2 |!<(! A8!<)! | !fermata!A8 ||[M:4/4][Q:1/4=140] z30 | z34 || %102
w: glo- ri- a nu- me-|ra-|ri.|||
[M:4/4][Q:1/4=140][Q:1/4=85][Q:1/4=140][Q:1/4=85][Q:1/4=140][Q:1/4=85][Q:1/4=140][Q:1/4=85] z4!p! F4 | %103
w: Et|
 F2 G2!<(! (FG AG/A/!<)! |!>(! B4) E4!>)! | z2 z"^cresc." e c2 d2 |!f! (cd ed/e/ f4) | %107
w: re- ge e\- * * * *|* os,|et re- ge|e\- * * * * *|
[M:4/4][Q:1/4=85]"^,"[Q:1/4=85][Q:1/4=85][Q:1/4=85] B2!mf! B4 c2 | d2 e2 A4 |"^," A4 c4 | d4 B4- | %111
w: os, et ex-|tol- le il-|los us-|que in|
 B2 c4 (B2- | B2 ^A2) !fermata!B4 ||[M:4/4][Q:1/4=140] z24 | z18 || %115
w: * ae- ter\-|* * num.|||
[M:3/2][Q:1/4=140]!mf!"^allegro"[Q:1/4=208][Q:1/4=140][Q:1/4=232][Q:1/4=140][Q:1/4=232][Q:1/4=140][Q:1/4=232] F8 G4 | %116
w: Et lau-|
 F8"^," F4 | G8 A4 | B8 B4 | A4 !>!^G6 G2 ||[M:4/4]"^l'istesso tempo"[Q:1/4=104] A4 z2!f! !>!c2- | %121
w: da- mus|no- men|tu- um|in sae- cu-|lum et|
 c2 B2 ^A3 A |"^," B2 (!>!B3 !courtesy!=AGF | G3) G !fermata!F4 || %124
w: * in sae- cu-|lum sae\- * * *|* cu- li.|
[M:4/4][Q:1/4=104][Q:1/4=104][Q:1/4=104][Q:1/4=140][Q:1/4=104] z30 | z28 || %126
w: ||
[M:4/4][Q:1/4=140]"^lento"!p![Q:1/4=80][Q:1/4=140][Q:1/4=104][Q:1/4=140][Q:1/4=104][Q:1/4=140][Q:1/4=104]!<(! A6 A2 | %127
w: Mi- se-|
 ^A4 B4!<)! |!mf! (G3 F E2) F2 |!>(! G3 G"^," F4!>)! | z2!p! B4 B2 | A4 F4 | %132
w: re- re|no\- * * stri,|Do- mi- ne,|mi- se-|re- re|
"^rit." F4 !fermata!F4 ||[M:4/4][Q:1/4=104][Q:1/4=104][Q:1/4=104][Q:1/4=140][Q:1/4=104] z44 | %134
w: no- stri.||
[Q:1/4=140][Q:1/4=140][Q:1/4=140][Q:1/4=140] z28 || %135
w: |
[M:4/4]"^cresc."!mf![Q:1/4=120][Q:1/4=80][Q:1/4=80][Q:1/4=80] F6 F2 | G3 G G2 A2 | !>!B4 A4- | %138
w: In te,|Do- mi- ne, spe-|ra- vi,|
"^," A4!ff! d4- | %139
w: * non|
[M:4/4][Q:1/4=80][Q:1/4=120][Q:1/4=80][Q:1/4=120][Q:1/4=80][Q:1/4=120][Q:1/4=80][Q:1/4=120] d2 c2 B4 | %140
w: * con- fun-|
"^," B2[Q:1/4=118] (B2[Q:1/4=114] ^A4) |"^rit."[Q:1/4=109] (!>!B3[Q:1/4=107] c[Q:1/4=104] d4) | %142
w: dar in ae-|ter\- * *|
[Q:1/4=102]!>(! !fermata!c8!>)! |] %143
w: num.|
V:2
 z24 ||[K:D][M:4/4][K:treble]!f!"^v" F4 (^G3 A | B2 A!courtesy!=G A2) F2 |"^," G2 G4 F2 | !>!E8 | %5
w: |Te Do\- *|* * * * mi-|num con- fi-|te-|
 !fermata!E8 ||[M:4/4] z18 | z26 ||[M:4/4] A4"^," A2 G2- | G2 F2 (G4 | F3) F"^," F2 !>!E2- | %11
w: mur.|||Ti- bi o\-|* mnes an\-|* ge- li, ti\-|
 E2 E2 (A,B, CB,/C/ |[M:4/4] D4"^," F2 F2 | !>!G3 G G4 | E2 F4 F2 | !>!E4 !fermata!E4 || %16
w: * bi coe\- * * * *|* li et|u- ni- ver-|sae po- te-|sta- tes.|
[M:4/4] z26 | z30 ||[M:4/4]!p! E3!<(! D EFG- x | GF/E/!<)! DE F4- |"^rit."!>(! F8!>)! | %21
w: ||San\- * * * *|||
 x !fermata!F8) ||[M:4/4]!p! F6 B,2 |!<(! F2 GG (FE!<)!F^G | A2) E2 (F3 E/F/ | %25
w: ctus.|San- ctus|Do- mi- nus De\- * * *|* us Sa\- * *|
 !courtesy!=G2 F2 E4- | E6)!>(! E2 | !fermata!E8!>)! ||[M:4/4] z22 | z28 ||[M:4/4] z4!f! E4 | %31
w: |* ba-|oth.|||Te|
 F2 F2 !>!G4 |"^," F2 A2 A3 A | G2 E2"^rit." (F4 | E4) !fermata!E4 ||[M:4/4] z36 ||[M:4/4] z8 | %37
w: glo- ri- o-|sus A- po- sto-|lo- rum cho\-|* rus.|||
!f! !>!A4 ^G3 G | A2 AA F4 |[M:4/4]"^," !courtesy!=G2 !>!F2 (A3 G | FEDC B,2) !>!G2 | %41
w: Te Mar- ty-|rum can- di- da-|tus lau- dat, *|* * * * * lau-|
 F2 E2 !>!E3"^rit." E | !fermata!E8 ||[M:4/4] z20 | z28 ||[M:4/4]!mf! (E4!<(! F4) |"^," F8!<)! | %47
w: dat e- xer- ci-|tus.|||Pa\- *|trem|
 E4 (!>!EDCB, | CD E2 F2) F2 | F2 E2"^rit." D4 | !fermata!C8 ||[M:4/4] z22 | z20 || %53
w: im- men\- * * *|* * * * sae|ma- je- sta-|tis.|||
[M:3/2]!mf! F8 F4 | ^G8"^," G4 |"^cresc." ^G8 A4 |!f! A8 A4 ||[M:4/4] F2 !>!!courtesy!=G3 G F2 | %58
w: San- ctum|quo- que,|san- ctum|quo- que|Pa- ra- cli- tum|
"^rit." (E3 D!>(! C2) C2!>)! | !fermata!^D8 ||[M:4/4] z22 ||[M:4/4]!mf! F4!<(! (G3 F!<)! | E4) D4 | %63
w: Spi\- * * ri-|tum.||Tu Pa\- *|* tris|
 z4 F4- | F2 C2 D4 |"^," E4 F4 |!>(! E6!>)! E2 | !fermata!E8 ||[M:4/4] z38 | z30 ||[M:4/4] z8 | %71
w: sem\-|* pi- ter-|nus es|Fi- li-|us.||||
 z8 | z8 | z4!mf! G4- | G2 G2 G2 G2 | G4 F2 E2 | F3 F E4- |[M:4/4]"^poco accelerando""^," E6 E2 | %78
w: ||Tu|* de- vi- cto|mor- tis a-|cu- le- o|* a-|
!<(! E6 E2!<)! | F4 E2 E2 | !>!A3 A"^," F2 F2- | F2 E4 ^D2 | (E3 !courtesy!=D C2 B,A, | %83
w: pe- ru-|i- sti cre-|den- ti- bus re\-|* gna coe-|lo\- * * * *|
 B,4) !fermata!C4 |[M:4/4] z46 ||[M:4/4]!f! F4 F4 | E3 E D4 | F4 F2!>(! F2 | %88
w: * rum.||Ju- dex|cre- de- ris|es- se ven-|
 (D2 E2)!>)! !fermata!F4 ||[M:4/4] z40 | z32 ||[M:4/4]!p! F8 | D4 E4 |"^," A,2 A2 F2 F2 | %94
w: tu\- * rus.|||Ae-|ter- na|fac cum san- ctis|
 x2 x2 x2 x2 |!<(! (G3 F EF G2-!<)! |[M:4/4]!>(! G2 F2)!>)!"^," G2!p! G2 | GG A2 G2 G2 | %98
w: |tu\- * * * *|* * is in|glo- ri- a nu- me-|
!<(! (F4 E4)!<)! | !fermata!F8 ||[M:4/4] z30 | z34 ||[M:4/4] z4!p! D4 |!<(! D2 D2!<)! D4- | D4 C4 | %105
w: ra\- *|ri.|||Et|re- ge e\-|* os,|
 z2"^cresc." A2 A2 A2 |!f! A8 |[M:4/4]"^," ^G2!mf! G4 A2 | A2 !courtesy!=G2 F4 |"^," E4 A4 | %110
w: et re- ge|e-|os, et ex-|tol- le il-|los us-|
 F4 G4- | G2 G2 F4- | F4 !fermata!F4 ||[M:4/4] z24 | z18 ||[M:3/2]!mf! ^D8 E4 | ^D8"^," D4 | %117
w: que in|* ae- ter\-|* num.|||Et lau-|da- mus|
 E8 F4 | G8 G4 | E4 !>!!courtesy!=D6 D2 ||[M:4/4] E4 z2!f! !>!A2- | A2 F2 F3 F |"^," D4 (GFED | %123
w: no- men|tu- um|in sae- cu-|lum et|* in sae- cu-|lum sae\- * * *|
 E3) E !fermata!^D4 ||[M:4/4] z30 | z28 ||[M:4/4]!p!!<(! F6 F2 | F4 F4!<)! |!mf! (E3 F G2) F2 | %129
w: * cu- li.|||Mi- se-|re- re|no\- * * stri,|
!>(! E3 E"^," ^D4!>)! |!p! F4 ^D2 (E2- | E2 F2) ^D4 |"^rit." C4 !fermata!^D4 ||[M:4/4] z44 | z28 || %135
w: Do- mi- ne,|mi- se- re\-|* * re|no- stri.|||
[M:4/4]"^cresc."!mf! C6 ^D2 | E3 E E2 F2 | !>!G4"^," F2!ff! F2- | F2 E2 (DEFG) | %139
w: In te,|Do- mi- ne, spe-|r;~i- vi, non|* con- fun\- * * *|
[M:4/4]"^," A4 D2 F2 | (!>!G4 F4) |"^rit." F8- |!>(! !fermata!F8!>)! |] %143
w: dar in ae-|ter\- *|num.||
V:3
[K:D]"^Giovanni Francesco Anerio\n(1567-1630)""^Te Deum laudamus" F2 (A2 B2) B2 (B2 A2) (B2 c2 d2) (c2 B4) || %1
w: Te De\- * um lau\- * da\- * * mus *|
[M:4/4][K:treble-8]!f! ^d4 e4- | e2 e2"^," f2 (!courtesy!=d2- | dcBA Bc d2- | d2) c2 !>!B4 | %5
w: Te Do\-|* mi- num con\-||* fi- te-|
 !fermata!A8 || (A2 c2) B2 d2 c2 (B2 c2) B4 | F2 (A2 B2) B2 B2 A2 (B2 c2) (c2 B2 A2) A4 || %8
w: mur.|Te * ae- ter- num Pa\- * trem:|o- mnis * ter- ra ve- ne\- * ra\- * * tur.|
[M:4/4][K:treble-8] f4"^," f2 d2- | d2 d2 (e3 d | c2) c2"^," B2 !>!B2 | B2 c4 A2- | %12
w: Ti- bi o\-|* mnes an\- *|* ge- li, ti-|bi coe- li|
"^," A2 A2 !>!d3 d | d2 B2 d2 e2 | (!>!c4 d3 c | B4) !fermata!A4 || %16
w: * et u- ni-|ver- sae po- te-|sta\- * *|* tes.|
 (A2 c2) B2 d2 c2 B2 B2 (B2 c2) (B2 A2) B4 | F2 (A2 B2) B2 B2 B2 B2 A2 (B2 c2) (c2 B2 A2) A4 || %18
w: Ti\- * bi Che- ru- bim et Se\- * ra\- * phim:|in- ces\- * sa- bi- li vo- ce pro\- * cla\- * * mant.|
[M:4/4][K:treble-8]!p!!<(! (c6 BA!<)! | B6 A2 |"^rit."!>(! d4 c4)!>)! | !fermata!B8 x || %22
w: San\- * *|||ctus.|
 z4!p!!<(! ^d4- | d2"^," e2!<)! =d2 dd | (edcB c2 d2- | d2) (B3 A) (A2- | A2 ^GF G2)!>(! G2 | %27
w: San\-|* ctus Do- mi- nus|De\- * * * * *|* us * Sa\-|* * * * ba-|
 !fermata!A8!>)! || (A2 c2) c2 B2 d2 c2 B2 (B2 c2) B4 | %29
w: oth.|Ple\- * ni sunt cae- li et ter\- * ra:|
 F2 (A2 B2) B2 B2 B2 A2 (B2 c2) (c2 B2 A2) A4 ||[M:4/4][K:treble-8]!f! e4 c2 A2 | !>!d8 | %32
w: ma- jes\- * ta- tis glo- ri- ae * tu\- * * ae.|Te glo- ri-|o-|
"^," d2 f2 e3 f | d2 c2"^rit." (d3 c | B4) !fermata!A4 || %35
w: sus A- po- sto-|lo- rum cho\- *|* rus.|
 (A2 c2 B2) d2 c2 (B2 c2) B2 B2 B2 A2 (B2 c2) c2 (B2 A2) A4 ||[M:4/4][K:treble-8] z4!f! !>!d4 | %37
w: Te * * Pro- phe- ta\- * rum lau- da- bi- lis * nu- me\- * rus:|Te|
 c3 c d2 dd | !>!e4 d4- |"^," d4 !>!A4 | d2 f2 (!>!e3 d | c4 B3)"^rit." B | !fermata!A8 || %43
w: Mar- ty- rum can- di-|da- tus|* lau-|dat e- xer\- *|* * ci-|tus.|
 (A2 c2) B2 d2 c2 B2 (B2 c2) B4 | F2 (A2 B2) B2 B2 B2 A2 (B2 c2) c2 (B2 A2) A4 || %45
w: Te * per or- bem ter- ra\- * rum|san- cta * con- fi- te- tur Ec\- * cle- si\- * a:|
[M:4/4][K:treble-8]!mf! (c6!<(! d2- | dcBA)!<)! B2 F2 | ^G4 A2"^," (e2- | edcB c2) (d2- | %49
w: Pa\- *|* * * * trem im-|men- sae ma\-|* * * * * je\-|
 dcBA)"^rit." B4 | !fermata!^A8 || (A2 c2) B2 d2 c2 B2 B2 (B2 c2) B4 | %52
w: * * * * sta-|tis.|Ve\- * ne- ran- dum tu- um ve\- * rum,|
 B2 B2 A2 (B2 c2) c2 (B2 A2) A4 ||[M:3/2][K:treble-8]!mf! c8 ^d4 | e8"^," e4 |"^cresc." e8 e4 | %56
w: et u- ni- cum * Fi- li\- * um:|San- ctum|quo- que,|san- ctum|
!f! f8 f4- ||[M:4/4] d2 !>!d4 d2 |"^rit." B2 B4!>(! ^A2!>)! | !fermata!B8 || %60
w: quo- que|Pa- ra- cli|tum Spi- ri-|tum.|
 (A2 B2) B2 (B2 A2) B2 (B2 c2) A2 F4 ||[M:4/4][K:treble-8]!mf! c4!<(! (ed/c/ B2-!<)! | %62
w: Tu * Rex glo\- * ri- ae, * Chri- ste.|Tu Pa\- * * *|
 B2) ^A2"^," B4 | d6 (cB) | (c2 e4 d2- | d2) c2"^," d4 |!>(! (c3 B/A/ B2)!>)! B2 | !fermata!A8 || %68
w: * * tris|sem- pi\- *|ter\- * *|* nus es|Fi\- * * * li-|us.|
 F2 (A2 B2) B2 B2 B2 B2 B2 B2 B2 A2 (B2 c2 d2) (c2 B2 A2) B4 | %69
w: Tu ad * li- be- ran- dum su- sce- ptu- rus ho\- * * mi\- * * nem,|
 F2 (A2 B2) B2 B2 B2 (B2 A2) B2 (B2 c2) A2 A2 F4 ||[M:4/4][K:treble-8]!f! d6 d2 | d2 d2 d4- | %72
w: non ho\- * ru- i- sti Vir\- * gi- nis * u- te- rum.|Tu de-|vi- cto mor\-|
 d2 B2 d2 e2- | e2 ^d2"^," e2!mf! B2- | B2 =c2 B2 G2 | B2 !courtesy!^c2 !courtesy!=d2 e2- | %76
w: * tis a- cu\-|* le- o, tu|* de- vi- cto|mor- tis a- cu\-|
 e2 ^d2"^," e2 B2- |[M:4/4][K:treble-8] B2 (e3 !courtesy!=dcB | c2 B!<(!A B2) c2 | d4 c4!<)! | %80
w: * le- o a\-|* pe\- * * *|* * * * ru-|i- sti|
 z2 A2 !>!d3 d | c4 (A3 B) | c2 (B3"^," A) (A2- | A2 ^G2) !fermata!A4 | %84
w: cre- den- ti-|bus re\- *|gna coe\- * lo\-|* * rum.|
 F2 (A2 B2) B2 B2 B2 B2 A2 (B2 c2 d2) (c2 B4) B2 (B2 A2) B2 (B2 c2) A2 F4 || %85
w: Tu ad * dex- te- ram De- i se\- * * des * in glo\- * ri- a * Pa- tris.|
[M:4/4][K:treble-8]!f! c4 B4 | B3 B B4 | d4 c2!>(! d2 | B4!>)! !fermata!c4 || %89
w: Ju- dex|cre- de- ris|es- se ven-|tu- rus.|
 F2 (A2 B2) B2 B2 B2 B2 B2 B2 B2 B2 A2 (B2 c2 d2) (c2 B2 A2) B4 | %90
w: Te er\- * go quae- su- mus, tu- us fa- mu- lis sub\- * * ve\- * * ni,|
 F2 (A2 B2) B2 B2 B2 c2 B2 (B2 A2) B2 (B2 c2) A2 F4 ||[M:4/4][K:treble-8]!p! c4 (!>!d3 c | %92
w: quos pre\- * ti- o- so san- gui- ne * re- de\- * mi- sti.|Ae- ter\- *|
 BA B4-) c2 |"^," d4 d4 |!<(! B2 B2 (=c3 B!<)! | x8 |[M:4/4][K:treble-8]!>(! A4!>)!"^," G2!p! d2 | %97
w: * * * na|fac cum|san- ctis tu\- *||* is in|
 dd d2 d2 e2- | e2!<(! (d4 c2)!<)! | !fermata!d8 || D2 E2 G2) G2 G2 G2 G2 G2 G2 E2 G2 (F2 E2 D4) | %101
w: glo- ri- a nu- me\-|* ra\- *|ri.|Sal- vum * fac po- pu- lum tu- um Do- mi- ne, * *|
 D2 (E2 G2) G2 G2 G2 (G2 F2) E2 G2 (A2 B2) (A2 G2 F2) F4 ||[M:4/4][K:treble-8]!p! A4 A2 F2 | %103
w: et be\- * ne- dic he- re\- * di- ta- ti * tu\- * * ae.|Et re- ge|
!<(! (AG/A/ B4!<)! A2- | A2 ^G2) A2"^cresc." e2 | e2 c2!f! (ed/e/ f2- | f2 e4 ^d2) | %107
w: e\- * * * *|* * os, et|re- ge e\- * * *||
[M:4/4][K:treble-8]"^," e2!mf! e4 e2 | A2 A2 !courtesy!=d4 |"^," c2 e4 f2- | f2 d4 B2- | %111
w: os, et ex-|tol- le il-|los us- que|* in ae\-|
 B2 (e3 dcB | c4) !fermata!B4 || F2 (A2 B2) B2 (B2 A2) (B2 c2 d2) (c2 B4) | %114
w: * ter\- * * *|* num.|Per sin\- * gu- los * di\- * * es, *|
 B2 (B2 A2) B2 (B2 c2) A2 F4 ||[M:3/2][K:treble-8]!mf! B8 B4 | B8"^," B4 | B8 d4 | d8 d4 | %119
w: be- ne\- * di- ci\- * mus Te.|Et lau-|da- mus|no- men|tu- um|
 c4 !>!d6 d2 ||[M:4/4] c4- z2!f! !>!e2- | e2 d2 c3 c |"^," B4 B4- | B2 B2 !fermata!B4 || %124
w: in sae- cu-|lum et|* in sae- cu-|lum sae\-|* cu- i.|
 F2 (A2 B2) B2 B2 B2 B2 B2 A2 (B2 c2 d2) (c2 B4) | F2 (A2 B2) B2 B2 B2 (B2 A2) B2 (B2 c2) A2 F4 || %126
w: Di- gna\- * re Do- mi- ne di- e i\- * * sto *|si- ne * pec- ca- to nos * cu- sto\- * di- e.|
[M:4/4][K:treble-8]!p!!<(! d6 d2 | c4 ^d4-!<)! |!mf! B6 B2 |!>(! B3 B"^," B4!>)! | %130
w: Mi- se-|re- re|no- stri,|Do- mi- ne,|
 z2!p! (d2 f2) B2 | !>!c2 (c3 B)"^," (B2- |"^rit." B2 ^A2) !fermata!B4 || %133
w: mi\- * se-|re- re * no\-|* * stri.|
 F2 (A2 B2) B2 B2 B2 B2 B2 B2 B2 B2 B2 B2 A2 (B2 c2 d2) (c2 B2 A2) B4 | %134
w: Fi- at * mi- se- ri- cor- di- a tu- a Do- mi- ne su\- * * per * * nos,|
 F2 (A2 B2) B2 B2 B2 (B2 A2) B2 (B2 c2) A2 F4 ||[M:4/4][K:treble-8]"^cresc."!mf! ^A6 B2 | %136
w: quem- ad\- * mo- dum spe- ra\- * vi- mus * in Te.|In te,|
 B3 B B2 d2 | !>!d8 | A4 z2!ff! d2 |[M:4/4][K:treble-8] e2 (f3 edc) |"^," B2 (e2 d2) c2 | %141
w: Do- mi- ne, spe-|ra-|vi. non|con- fun\- * * *|dar in * ae-|
"^rit." (!>!d3 c B4) |!>(! !fermata!^A8!>)! |] %143
w: ter\- * *|num.|
V:4
 z24 ||[K:G][M:4/4][K:bass]!f! B,4 (E,3 F, | ^G,2) A,2"^," D,4 | !courtesy!=G,6 D,2 | !>!E,8 | %5
w: |Te Do\- *|* mi- num|con- fi-|te-|
 !fermata!A,,8 ||[M:4/4] z18 | z26 ||[K:D][M:4/4] D,4"^," F,2 G,2- | G,2 B,2 (E,4 | %10
w: mur.|||Ti- bi o\-|* mnes an\-|
 F,3) F,"^," B,,2 !>!E,2- | E,2 E,2 F,4 |[M:4/4]"^," D,6 D,2 | !>!G,3 G, G,2 E,2 | %14
w: * ge- lí, ti\-|* bi coe-|li et|u- ni- ver- sae|
 (A,G,F,E, D,2) D,2 | !>!E,4 !fermata!A,,4 ||[M:4/4] z26 | z30 ||[M:4/4]!p!!<(! (A,6 G,F, | %19
w: po\- * * * * te-|sta- tes.|||San\- * *|
 E,2!<)! G,2 F,3 E, |!>(! D,2"^rit." C,B,, F,4)!>)! | !fermata!B,,8 x ||[M:4/4] z4!p!!<(! B,4- | %23
w: ||ctus.|San\-|
 B,2"^," E,2!<)! B,2 B,B, | (A,3 G, F,E,D,C, | B,,2) B,,2 (C,3 D, | E,6)!>(! E,2 | %27
w: * ctus Do- mi- nus|De\- * * * * *|* us Sa\- *|* ba-|
 !fermata!A,,8!>)! ||[M:4/4] z22 | z28 ||[M:4/4] z4!f! A,4 | F,2 D,2 !>!G,4 |"^," D,2 D,2 A,3 F, | %33
w: oth.|||Te|glo- ri- o-|sus A- po- sto-|
 G,2 A,2"^rit." (D,4 | E,4) !fermata!A,,4 ||[M:4/4] z36 ||[M:4/4]!f! !>!A,4 ^G,3 G, | %37
w: .~lo- rum cho\-|* rus.||Te Mar- ty-|
 A,2 A,A, B,4 | A,4 z2 !>!D,2 |[M:4/4] !courtesy!=G,2 B,2 (!>!A,G,F,E, | D,4 E,4 | %41
w: rum can- di- da-|tus lau-|dat e- xer\- * * *||
 F,2 A,2 E,3)"^rit." E, | !fermata!A,,8 ||[M:4/4] z20 | z28 ||[M:4/4]!mf! (A,3!<(! G, F,E,D,C, | %46
w: * * * ci-|tus.|||Pa\- * * * * *|
 B,,4)!<)!"^," B,,2 B,,2 | E,4"^," A,,4 | (A,3 G, F,E, D,2- | D,2) E,2"^rit." B,,4 | %50
w: * trem im-|men- sae|ma\- * * * *|* je- sta-|
 !fermata!F,8 ||[M:4/4] z22 | z20 ||[M:3/2]!mf! F,8 B,4 | E,8"^," E,4 |"^cresc." E,8 A,4 | %56
w: tis.|||San ctum|quo- que,|san- ctum|
!f! D,8 D,4 ||[M:4/4] D,2 !>!G,3 G, D,2 |"^rit." (E,4!>(! F,3) F,!>)! | !fermata!B,,8 || %60
w: quo- que|Pa- ra- cli- tum|Spi\- * ri-|tum.|
[M:4/4] z22 ||[M:4/4]!mf! F,4!<(! (E,3 D,!<)! | C,4)"^," B,,4 | B,4 F,4 | (A,4 B,4) |"^," A,4 x4 | %66
w: |Tu Pa\- *|* tris|sem- pi-|ter\- *|nus|
!>(! E,6!>)! E,2 | !fermata!A,,8 ||[M:4/4] z38 | z30 ||[M:4/4] z4!f! G,4- | G,2 G,2 G,2 G,2 | %72
w: Fi- li-|us.|||Tu|* de- vi- cto|
 G,4 F,2 E,2 | F,3 F,"^," E,2!mf! E,2- | E,2 E,2 E,2 E,2 | E,4 B,,2 =C,2 | B,,3 B,,"^," E,4 | %77
w: mor- tis a-|cu- le- o, tu|* de- vi- cto|mor- tìs a-|cu- le- o|
[M:4/4] E,4 (A,4- | A,2 ^G,F, G,2)!<(! A,2 | D,4 A,4-!<)! |!>(! A,4!>)! z2 D,2 | !>!A,3 A, F,4 | %82
w: a- pe\-|* * * * ru-|i- sti|* cre-|den- ti- bus|
 E,4 F,2 F,2 | E,4 !fermata!A,,4 |[M:4/4] z46 ||[M:4/4]!f! F,4 ^D,4 | E,3 E, B,,4 | %87
w: re- gna coe-|lo- rum.||Ju- dex|cre- de- ris|
 B,4 F,2!>(! F,2 | G,4!>)! !fermata!F,4 ||[M:4/4] z40 | z32 ||[M:4/4]!p! F,8 | %92
w: es- se ven-|tu- rus.|||Ae-|
 (!>!G,3 F, E,2) E,2 | D,8 | z8 | x8 |[M:4/4] z4 z2!p! G,2 | G,G, F,2 G,2 E,2 | %98
w: ter\- * * na|fac|||in|glo- ri- a nu- me-|
!<(! (F,3 G, A,4)!<)! | !fermata!D,8 ||[M:4/4] z30 | z34 ||[M:4/4] z4!p! D,4 | %103
w: ra\- * *|ri.|||Et|
!<(! D,2 B,,2!<)! (D,3 C, | B,,4) A,,4 |"^cresc." A,4 A,2 F,2 |!f! (A,3 G, F,4) | %107
w: re- ge e\- *|* os,|et re- ge|e\- * *|
[M:4/4]"^," E,2!mf! E,4 A,2 | F,2 E,2 D,4- |"^," A,4 A,4 | B,4 G,4 | E,4 F,4- | %112
w: os, et ex-|tol- le il-|los us-|que in|ae- ter\-|
 F,4 !fermata!B,,4 ||[M:4/4] z24 | z18 ||[M:3/2]!mf! B,,8 E,4 | B,,8"^," B,,4 | E,8 D,4 | G,8 G,4 | %119
w: * num.|||Et lau-|da- mus|no- men|tu- um|
 A,4 !>!B,6 B,2 ||[M:4/4] A,4 z2!f! !>!A,2- | A,2 B,2 F,3 F, |"^," G,4 E,4- | %123
w: in sae- cu-|lum et|* in sae- cu-|lum sae\-|
 E,2 E,2 !fermata!B,,4 ||[M:4/4] z30 | z28 ||[M:4/4]!p!!<(! D,6 D,2 | F,4 B,,4!<)! |!mf! E,6 ^D,2 | %129
w: * cu- li.|||Mi- se-|re- re|no- stri,|
!>(! E,3 E,"^," B,,4!>)! | z2!p! B,4 ^G,2 | A,4 B,4 |"^rit." F,4 !fermata!B,,4 ||[M:4/4] z44 | %134
w: Do- mi- ne,|mi- se-|re- re|no- stri.||
 z28 ||[M:4/4]"^cresc."!mf! F,6 B,,2 | E,3 E, E,2 D,2 | !>!G,4"^," D,2!ff!"^," D2- | D2 C2 B,4 | %139
w: |In te,|Do- mi- ne, spe-|ra- vi, non|* con- fun-|
[M:4/4] A,4 B,3 A, | (G,F, E,2 F,4 |"^rit." B,,8) |!>(! !fermata!F,8!>)! |] %143
w: dar in ae-|ter\- * * *||num.|

